X:61
T:Walls of Liscarrol, The
R:jig
D:Elizabeth Crotty: Concertina Music from West Clare
Z:Julie Ross
M:6/8
K:Ddor
dcA AGE|GED D2E|GEE cEE|GAB c3|dcA AGE|GED D2E|GEE cEE|EDD D3:|
dcd ecA|dcd ecA|GEE cEE|GAB c3| dcd ecA|dcd ecA|GEE cEE|EDD D3:|
